!!!OTL: Die Vielliebchen ( Valentinchen ).
!!!OTL-incipit: ICH WEISS JETT
!!!ARE: Europa, Mitteleuropa, Deutschland, Niederrhein
!!!SCT: Z1277
!!!YEM: Copyright 1995, estate of Helmut Schaffrath.
**kern	**text
*ICvox	*
*M3/4	*
*k[b-e-]	*
*g:	*
!LO:TX:a:t=Einer.	!
!LO:TX:a:t=Vom Niederrhein.	!
{4d	Jch
=1	=1
(2b-	weiß
4a)	.
=2	=2
4g	jett!
8r	.
!LO:TX:a:t=Alle.	!
8b-/L	Wat
8dd	.
8aJ	.
=3	=3
2b-/	weiß-
4a	-te
=4	=4
4g;	dann?
!LO:TX:a:t=Der Piters Olof un dat Dolfes Drückchen dat sind zwihn	!
4r}	.
!LO:TX:a:t=Alle.	!
{4d	Mer
=5	=5
(4d	ma-
4g)	.
4a	-chen
=6	=6
(4.b-	e_Paar
8a)	.
4g	dor-
=7	=7
(>4a	-us
4g)	.
4f#	recht
=8	=8
2g}	ſchün,
{4g	ʒo
=9	=9
4f	O-
4b-	-ſte-
4cc	-ren
=10	=10
4.dd	geft
8cc	et
4b-	em
=11	=11
(4cc	Blo-
4dd)	.
4cc	-men-
=12	=12
2b-}	-ſtruß,
{4a	un
=13	=13
2g	üfer
4a	et
=14	=14
(4.b-	Johr
8a)	.
4g	die
=15	=15
4a	Weg
4g	en
4f#	et
=16	=16
2g}	Hus!
==	==
!!!AGN: Natur und Welt, Brauchtums - Lied
!!!ONB: ESAC (Essen Associative Code) Database: ZUCCAL
!!!AMT: simple triple
!!!AIN: vox
!!!EED: Helmut Schaffrath
!!!EEV: 1.0
!!!RDF**kern: >= above
!!!GTL: VI. Natur und Welt.
!!!URL-scan: https://www.digitale-sammlungen.de/de/view/bsb11160573?page=507
!!!ENC: Anna Maria Matuszewska
!!!EEV: 2025/02/06
*-	*-
